!! 00000] TT[00
!! NN
!!!OTL: Ba yan hang gai
!!!ARE: Neimeng Erduos
!! Ethnic Group: Menggu
!! IV, 343
!!!SCT: C0420
!!!YEM: Copyright 1995, estate of Helmut Schaffrath.
**kern
*ICvox
*Ivox
*M4/4
*k[b-]
*F:
{4a
8g
8a
4.c
8d
=1
4f
8d
8c
4.cc
8a
=2
4g
8a
8cc
4f
8d
8c
=3
4.cc
8ff
2cc}
=4
{4ff
8dd
8ff
4.f
8d
=5
4cc
4g
4.a
8ff
=6
4dd
4gg
4cc
8b-
8a
=7
4.g
8a
2g}
=8
{4cc
8a
8g
4.f
8g
=9
4.a
8ff
8dd
8ff
8dd
8cc
=10
4a
8a
8g
4f
8d
8c
=11
4.cc
8ff
2cc}
=12
{4ff
8dd
8ff
4.c
8d
=13
4.f
8g
4.a
8ff
=14
4dd
4cc
4a
8g
8d
=15
1f}
==
!!!AGN: Duan ge. Zan junma
!! In dieser Region lebt man nicht nur von der Tierzucht, sondern
!!    pflanzt auch an.
!!!ONB: ESAC (Essen Associative Code) Database: CHINA
!!!AMT: simple quadruple
!!!AIN: vox
!!!EED: Helmut Schaffrath
!!!EEV: 1.0
*-
